assets/images/inverted_subjects/Combinatorics.svg

<svg xmlns="http://www.w3.org/2000/svg" viewBox="44.6 134.2 521.2 521.2" xmlns:v="https://vecta.io/nano"><path fill="#fff" d="M508.5 459.9L242 193.3c-7.2-7.5-19.3-7.5-26.9 0l-111 111c-7.5 7.2-7.5 19.3 0 26.9l266.5 266.2c7.2 7.5 19.3 7.5 26.9 0l111-110.7c7.6-7.2 7.6-19.3 0-26.8zm-278.3-245c8 0 14.4 6.5 14.4 14.4s-6.5 14.4-14.4 14.4-14.4-6.5-14.4-14.4 6.4-14.4 14.4-14.4zm0 86.8c8 0 14.4 6.5 14.4 14.4s-6.5 14.4-14.4 14.4-14.4-6.5-14.4-14.4 6.4-14.4 14.4-14.4zm-14.4 101.2c0-8 6.5-14.4 14.4-14.4s14.4 6.5 14.4 14.4-6.5 14.4-14.4 14.4-14.4-6.5-14.4-14.4zM299 486c-8 0-14.4-6.5-14.4-14.4s6.5-14.4 14.4-14.4 14.4 6.5 14.4 14.4S306.9 486 299 486zm-51.6-22.6l-9-9 127.3-127.3 9 9-127.3 127.3zm138 109.1c-8 0-14.4-6.5-14.4-14.4 0-8 6.5-14.4 14.4-14.4 8 0 14.4 6.5 14.4 14.4s-6.4 14.4-14.4 14.4zm0-86.5c-8 0-14.4-6.5-14.4-14.4s6.5-14.4 14.4-14.4c8 0 14.4 6.5 14.4 14.4s-6.4 14.4-14.4 14.4zm0-86.7c-8 0-14.4-6.5-14.4-14.4s6.5-14.4 14.4-14.4c8 0 14.4 6.5 14.4 14.4s-6.4 14.4-14.4 14.4zm86.8 86.7c-8 0-14.4-6.5-14.4-14.4s6.5-14.4 14.4-14.4c8 0 14.4 6.5 14.4 14.4s-6.5 14.4-14.4 14.4z"/></svg>

<?xml version="1.0" encoding="utf-8"?>
<!-- Generator: Adobe Illustrator 18.1.1, SVG Export Plug-In . SVG Version: 6.00 Build 0)  -->
<svg version="1.1" id="combinatorics_1_" xmlns="http://www.w3.org/2000/svg" xmlns:xlink="http://www.w3.org/1999/xlink" x="0px"
	 y="0px" viewBox="44.6 134.2 521.2 521.2" enable-background="new 44.6 134.2 521.2 521.2" xml:space="preserve">
<path fill="#FFFFFF" d="M508.5,459.9L242,193.3c-7.2-7.5-19.3-7.5-26.9,0l-111,111c-7.5,7.2-7.5,19.3,0,26.9l266.5,266.2
	c7.2,7.5,19.3,7.5,26.9,0l111-110.7C516.1,479.5,516.1,467.4,508.5,459.9z M230.2,214.9c8,0,14.4,6.5,14.4,14.4s-6.5,14.4-14.4,14.4
	s-14.4-6.5-14.4-14.4S222.2,214.9,230.2,214.9z M230.2,301.7c8,0,14.4,6.5,14.4,14.4s-6.5,14.4-14.4,14.4s-14.4-6.5-14.4-14.4
	S222.2,301.7,230.2,301.7z M215.8,402.9c0-8,6.5-14.4,14.4-14.4s14.4,6.5,14.4,14.4s-6.5,14.4-14.4,14.4S215.8,410.8,215.8,402.9z
	 M299,486c-8,0-14.4-6.5-14.4-14.4s6.5-14.4,14.4-14.4s14.4,6.5,14.4,14.4S306.9,486,299,486z M247.4,463.4l-9-9l127.3-127.3l9,9
	L247.4,463.4z M385.4,572.5c-8,0-14.4-6.5-14.4-14.4c0-8,6.5-14.4,14.4-14.4c8,0,14.4,6.5,14.4,14.4
	C399.8,566,393.4,572.5,385.4,572.5z M385.4,486c-8,0-14.4-6.5-14.4-14.4s6.5-14.4,14.4-14.4c8,0,14.4,6.5,14.4,14.4
	S393.4,486,385.4,486z M385.4,399.3c-8,0-14.4-6.5-14.4-14.4s6.5-14.4,14.4-14.4c8,0,14.4,6.5,14.4,14.4S393.4,399.3,385.4,399.3z
	 M472.2,486c-8,0-14.4-6.5-14.4-14.4s6.5-14.4,14.4-14.4c8,0,14.4,6.5,14.4,14.4S480.1,486,472.2,486z"/>
<g>
	<g>
		<path fill="none" d="M305.2,134.2c-143.9,0-260.6,116.7-260.6,260.6s116.7,260.6,260.6,260.6s260.6-116.7,260.6-260.6
			S449.1,134.2,305.2,134.2z"/>
	</g>
</g>
</svg>
